X: 43
T: No_31_Song_of_the_Kwekwasa_Dance_(b).krn
N: Derived from No_31_Song_of_the_Kwekwasa_Dance_(b).krn
%%abc-version 2.0
%%abcx-abcm2ps-target-version 5.9.1 (29 Sep 2008)
%%abc-creator hum2abc beta
%%abcx-conversion-date 2019/03/15 08:36:13
%%humdrum-veritas 2632166485
%%humdrum-veritas-data 1274263329
%%linebreak <none>
%%barnumbers 0
L: 1/8
M: 6/8
K: B clef=bass
[K:clef=bass][M:6/8]DDD DB,/ z/ D | 
!accent!DB,!accent!D D!accent!DB, | 
DB,B, B, z B, | 
B,B,B, B,G, z | 
B,B,B, B,G,B, | 
!accent!B,G,!accent!B, B,(B,G,) | 
D,D,B,, B,, z F, | 
F,D,F, G,/ z/ D,C, | 
D,B,,B,, B,, z C, | 
D,B,,B,,B,,3 | 
D,B,,B,, B,, z B,, | 
B,,B,,B,, B,, z B,, | 
B,,B,,B,, B,, z B,, | 
B,,B,,B,,B,,2z | 
B,B,B, B,G,B, | 
B,G,B, B,G, z :|]  
B,,B,,B,,B,,2z |]  



